!!!OTL: Der schwatzhafte Junggeselle
!!!OTL-incipit:Es waren einmal drei Gesellen,
!!!ARE: Europa, Mitteleuropa, Deutschland / France, Lothringen, Kr. Forbach,
!!    Altripp
!!!YOR: 6, S. 273
!!    1929 gedruckt
!!!SCT: Q0139C
!!!TXL: @@DE
!!!YEM: Copyright 1995, estate of Helmut Schaffrath.
**kern	**text
*ICvox	*
!! Mixed meters:  3/4; 4/4
*M4/4yy	*
*k[b-e-]	*
*B-:	*
{4f	1._Es
=1	=1
4b-	wa-
4a	-ren
4g	ein-
=2	=2
4cc	-mal
4dd	drei
4cc	Ge-
=3	=3
4b-	-sel-
4f	-len,
4r	.
=4	=4
4r	.
4r}	.
{4f	die
=5	=5
2b-	tä-
4g	-ten
=6	=6
2cc	was
4dd	sie
=7	=7
4b-	woll-
4f	-ten.
4r	.
=8	=8
4r	.
4r}	.
{4f	Sie
=9	=9
*M4/4	*
*met(c)	*
4dd	spiel-
4dd	-ten
4dd	al-
4ee-	-le
=10	=10
2dd	drei
4r	.
4b-	wohl
=11	=11
4cc	auf
4dd	ein'm
4ee-	Kar-
4dd	-ten-
=12	=12
2cc	-brett,
4r}	.
{4b-	bis
=13	=13
4a	das
4cc	der
4cc	ein
8ddL	o-
8ddJ	-der
=14	=14
2cc	and-
4b-	-re
4cc	das
=15	=15
4dd	Spiel
4ee-	ver-
4dd	-lo-
4cc	-ren
=16	=16
2b-	hätt.
4r}	.
==	==
!!!AGN: Ballade, Indiskretion, verweigerter Beischlaf
!! Taktwechsel entsprechend der Takteinteilung festgelegt.
!!!ONB: ESAC (Essen Associative Code) Database: BALLADE
!!!AMT: irregular
!!!AIN: vox
!!!EED: Helmut Schaffrath
!!!EEV: 1.0
!!@@COMMENT:"Pinek. Goethe S. 113
!!V. Keib, Altripp. Krs. Forbach, 1929."
!!@@END:
!!!source: Deutsche Volkslieder mit ihren Melodien Balladen. Herausgegeben vom Deutschen Volksliedarchiv. Sechster Band. Freiburg/Breisgau 1976.
!!!page: 273
!!!ENC: Anna Maria Matuszewska
!!!EEV: 2025/03/06
*-	*-
